X: 32873
T: Portobello
R: reel
M: 4/4
K: Edorian
|:B,EEF ~G2FG|AGEA, GFDA,|B,EEF ~G2FG|1 AGFD FEED:|2 AGFD FEFG||
|:A2AG EFFD|EGGF DA, (3EFG|A2AG EFFD|1 EGGF FEFG:|2 EGGF E2ED||
|:B,EGF EDEF|G2GA AGFD|A,DGF D3E|F2FA GFED|
B,EGF EDEF|G2GA AGFD|GAAG EFFD|1 EGGF FEED:|2 EGGF FEFG||
|:AGEA, GFDA,|AGFD EFGE|AGEA, GFDA,|1 F3G FEFG:|2 F3G FEED||

